!!!COM: Bach, Johann Sebastian
!!!OTA: Das wohltemperirte Clavier
!!!OPR: Das wohltemperierte Klavier
!!!OTL: Fuga 3, Vol. 2
!!!XEN: The Well-Tempered Clavier, Volume 2, Fugue 3.
!!!ONB: C-sharp major, 3-part
!!!SCT: BWV 872b
!!!YEC: Copyright 1994, David Huron
!!!YEM: Rights to all derivative electronic formats reserved.
!!!RNB: The texture increases to four voices in the final seven measures.
**kern	**kern	**kern
*staff2	*staff1	*staff1
*clefF4	*clefG2	*clefG2
*k[f#c#g#d#a#e#b#]	*k[f#c#g#d#a#e#b#]	*k[f#c#g#d#a#e#b#]
*M4/4	*M4/4	*M4/4
*C#:	*C#:	*C#:
*MM86	*MM86	*MM86
=1	=1	=1
8r	1r	2r
8C#	.	.
8E#	.	.
8C#	.	.
8G#	.	8r
8r	.	8g#
8F#	.	8b#
8r	.	8g#
=2	=2	=2
16E#	8r	8cc#
16D#	.	.
[8C#	8g#	8r
16C#]	8e#	8bn
16D#	.	.
16E#	8g#	8r
16C#	.	.
8F#	8c#	16a#
.	.	16g#
8r	8r	[8f#
8FF#	8d#	16f#]
.	.	16g#
8r	8r	16a#
.	.	16f#
=3	=3	=3
8r	16e#	8g#
.	16f#	.
8C#	[8g#	8r
8AA#	16g#]	8cc#
.	16f#	.
8C#	16e#	8r
.	16g#	.
8FF#	16d#	8cc#
.	16e#	.
8AA#	[8f#	8r
8DD#	16f#]	8b#
.	16e#	.
8GG#	16d#	8r
.	16f#	.
=4	=4	=4
8CC#	8e#	8r
8r	8r	8cc#
8r	4r	8ee#
8c#	.	8cc#
8B#	8r	8gg#
8d#	8g#	8r
8G#	8b#	8ff#
8r	8g#	8r
=5	=5	=5
8r	8cc#	16ee#
.	.	16dd#
8C#	8r	[8cc#
8E#	8bn	16cc#]
.	.	16dd#
8C#	8r	16ee#
.	.	16cc#
8F#	8a#	16r
.	.	16dd#
8r	8r	16ff#
.	.	16dd#
8E#	16r	8gg#
.	16a#	.
8r	16cc##	8r
.	16a#	.
=6	=6	=6
16r	8dd#	8ff#
16D#	.	.
16BB#	8r	8r
16D#	.	.
8GG##	16r	8.ee#
.	16dd#	.
8AA#	[8cc#	.
.	.	16ee#
8DD#	16cc#]	8ff##
.	8b#	.
8EE#	.	[8gg#
.	16b#	.
8CC#	8.a#	16gg#]
.	.	16gg#
8DD#	.	8ff#
.	16cc#	.
=7	=7	=7
8r	8b#	8gg#
8GG#	8r	8r
8BB#	4r	4r
8GG#	.	.
8C#	8r	2r
8r	8G#	.
8BB#	8B#	.
8r	8G#	.
=8	=8	=8
16AA#	8c#	8r
16BB#	.	.
16C#	8r	8e#
16D#	.	.
16E#	8Bn	8g#
16F#	.	.
32G#	8r	8e#
32F#	.	.
16E#	.	.
8F#	16A#	8a#
.	16B#	.
8r	16c##	8r
.	16d#	.
8C##	16e#	8g#
.	16f#	.
8r	32g#	8r
.	32f#	.
.	16e#	.
=9	=9	=9
8D#	8f#	16f#
.	.	16g#
8r	8r	16a#
.	.	16b#
8r	8e#	16cc##
.	.	16dd#
8A#	8r	32ee#
.	.	32dd#
.	.	16cc##
8F#	8r	8dd#
8A#	8a#	8r
8D#	8f#	8r
8F##	8a#	8dd#
=10	=10	=10
16G#	8d#	8b#
16GG#	.	.
16AA#	8f#	8dd#
16BB#	.	.
16C#	8e#	8g#
16D#	.	.
32E#	[8g#	8cc#
32D#	.	.
16C#	.	.
8F#	16g#]	8a#
.	16g#	.
8D#	16f#	8r
.	16e#	.
8r	16d#	8b#
.	16c#	.
8G#	32B#	8r
.	32c#	.
.	16d#	.
=11	=11	=11
8E#	8G#	8cc#
8G#	8r	8gg#
8C#	8r	8ee#
8r	8c#	8gg#
8r	8e#	8cc#
8C#	8c#	8r
8E#	8g#	16r
.	.	16bn
8C#	8r	16a#
.	.	16g#
=12	=12	=12
8F#	16r	[4a#
.	16g#	.
8A#	16f#	.
.	16e#	.
8D#	8.f#	16a#]
.	.	16a#
8F#	.	8dd#
.	[16f#	.
8BB#	16f#]	[4g#
.	16f#	.
8G#	16e#	.
.	16d#	.
8C#	8.e#	16g#]
.	.	16g#
8E#	.	8cc#
.	[16e#	.
=13	=13	=13
8AA#	16e#]	[4f#
.	16e#	.
8F#	16d#	.
.	16c#	.
8BB#	8.d#	16f#]
.	.	16e#
8D#	.	8f#
.	[16d#	.
8GG##	16d#]	[4e#
.	16d#	.
8EE#	16c#	.
.	16B#	.
8AA#	8.c#	16e#]
.	.	16d#
8GG#	.	[8e#
.	16B#	.
=14	=14	=14
8FF#	16A#	8.e#]
.	16G##	.
8EE#	[8A#	.
.	.	16e#
4FF#T	16A#]	4d#
.	16c#	.
.	16B#	.
.	16A#	.
8EE#	8G##	8e#
8E#	8r	8r
8G##	4r	8r
8E#	.	8ee#
=15	=15	=15
8A#	8r	8cc#
8r	8A#	8ee#
8G#	8c##	8a#
8r	8A#	8r
16F##	8d#	8r
16E#	.	.
[8D#	8r	8aa#
16D#]	8c#	8ff##
16E#	.	.
*strophe	*	*
*^	*	*
*S/sic	*S/ossia	*	*
32F##xx	16F##xx	8r	8aa#
32E#xx	.	.	.
*S/fin	*S/fin	*	*
*v	*v	*	*
*S-	*	*
16D#	.	.
=16	=16	=16
8G#	16B#	8dd#
.	16A#	.
8r	[8G#	8r
4r	16G#]	8ee#
.	16A#	.
*	*strophe	*
*	*^	*
*	*S/sic	*S/ossia	*
.	32Bnxx	16Bnxx	8r
.	32A#xx	.	.
.	16G#	16G#	.
2r	16A#	16A#	16ff#
.	16B#	16B#	16gg#
.	32c#xx	16c#xx	[8aa#
.	32B#xx	.	.
.	16A#	16A#	.
.	16B#	16B#	16aa#]
.	16c#	16c#	16gg#
.	32d#xx	16d#xx	16ff#
.	32c#xx	.	.
*	*S/fin	*S/fin	*
*	*v	*v	*
*	*S-	*
.	16B#	16gg#
=17	=17	=17
8r	[2c#	16ee#
.	.	16ff#
8C#	.	[8gg#
8E#	.	16gg#]
.	.	16ff#
8C#	.	16ee#
.	.	16ff#
[2G#	8c#]	16dd#
.	.	16gg#
.	8c#	16ff#
.	.	16ee#
.	8B#	16dd#
.	.	16cc#
.	8e#	32b#
.	.	32cc#
.	.	16dd#
=18	=18	=18
8G#]	4.A#	16cc#
.	.	16a#
8G#	.	16b#
.	.	16cc#
[4F#	.	16dd#
.	.	16ee#
.	8d#	32ff#
.	.	32ee#
.	.	16dd#
8F#]	4G#	16cc#
.	.	16b#
8F#	.	16a#
.	.	16g#
8E#	16r	8cc#
.	16g#	.
8r	16e#	8r
.	16g#	.
=19	=19	=19
16r	8c#	8a#
16A#	.	.
16F#	8r	8r
16A#	.	.
8D#	16r	8ff#
.	16B#	.
8r	16G#	8r
.	16B#	.
8C#	8c#	16r
.	.	16ff#
*	*	*strophe
*	*	*^
*	*	*S/sic	*S/ossia
8r	8G#	16ee#	16ee#
.	.	16dd#	16dd#
16r	[4c#	32ee#xx	16ee#xx
.	.	32ff#xx	.
16C#	.	16gg#	16gg#
16E#	.	32cc#xx	16cc#xx
.	.	32dd#xx	.
16C#	.	16ee#	16ee#
=20	=20	=20	=20
8F#	8c#]	16a#	16a#
.	.	16ee#	16ee#
8r	8A#	16dd#	16dd#
.	.	16cc#	16cc#
8r	[4F#	32dd#xx	16dd#xx
.	.	32ee#xx	.
.	.	16ff#	16ff#
8D#	.	32b#xx	16b#xx
.	.	32cc#xx	.
.	.	16dd#	16dd#
8BB#	8F#]	16g#	16g#
.	.	16dd#	16dd#
8r	8G#	16cc#	16cc#
.	.	16b#	16b#
8r	8E#	32cc#xx	16cc#xx
.	.	32dd#xx	.
.	.	16ee#	16ee#
8C#	[8e#	32g#xx	16g#xx
.	.	32a#xx	.
.	.	16bn	16bn
*	*	*S/fin	*S/fin
*	*	*v	*v
*	*	*S-
=21	=21	=21
8FF#	16e#]	8.a#
.	16c#	.
8F#	[8d#	.
.	.	16f#
8E#	16d#]	8.g#
.	16B#	.
8AA#	[8c#	.
.	.	16e#
8D#	16c#]	8.f#
.	16A#	.
8GG#	8B#	.
.	.	16d#
8C#	16r	[4e#
.	16c#	.
8CC#	16G#	.
.	16Bn	.
=22	=22	=22
16FF#	2A#	4e#_
16C#	.	.
16AA#	.	.
16C#	.	.
[4F#	.	16e#]
.	.	16d#
.	.	16f#
.	.	16d#
8F#]	16r	8B#
.	[8.G#	.
8F#	.	16B#
.	.	16d#
8E#	16G#]	8.g#
.	16c#	.
8G#	8B#	.
.	.	16f#
=23	=23	=23
8C#	16r	8e#
.	[8.c#	.
8Bn	.	16e#
.	.	16g#
8A#	16c#]	8.cc#
.	16f#	.
8c#	8e#	.
.	.	16bn
8F#	16r	8a#
.	[8.f#	.
8E#	.	16a#
.	.	16cc#
8D#	16f#]	[4ff#
.	16bn	.
8F#	16a#	.
.	16dd#	.
=24	=24	=24
8BB#	8g#	16ff#]
.	.	16a#
8G#	8r	16b#
.	.	16cc#
8B#	4r	16dd#
.	.	16ee#
8G#	.	32ff#
.	.	32ee#
.	.	16dd#
8c#	16r	16ee#
.	16B#	16ff#
8r	16c#	16ee#
.	16d#	16dd#
8A#	16e#	16cc#
.	16f##	16b#
8r	16g#	32a#
.	.	32b#
.	16f##	16cc#
=25	=25	=25
16r	8g#	8b#
16G#	.	.
16A#	8r	8gg#
16B#	.	.
16c#	4c#	8ee#
16d#	.	.
16e#	.	8gg#
16c#	.	.
8A#	4e#	16cc#
.	.	16ee#
8A#	.	16ff#
.	.	16gg#
8c#	4c#	16aa#
.	.	16bb#
8A#	.	16ccc#
.	.	16aa#
=26	=26	=26
8d#	8f#	16ff#
.	.	16gg#
8D#	8r	16ff#
.	.	16ee#
8BB#	8r	16dd#
.	.	16cc#
8D#	[8f#	32b#
.	.	32cc#
.	.	16dd#
8E#	16f#]	[2g#
.	16a#	.
8EE#	16g#	.
.	16f#	.
8CC#	16e#	.
.	16d#	.
*	*strophe	*
*	*^	*
*	*S/sic	*S/ossia	*
8EE#	32c#xx	16c#xx	.
.	32d#xx	.	.
*	*S/fin	*S/fin	*
*	*v	*v	*
*	*S-	*
.	16e#	.
=27	=27	=27
4FF#	4A#	16g#]
.	.	16c#
.	.	16d#
.	.	16e#
4D#	8r	16f#
.	.	16g#
.	8d#	16a#
.	.	16f#
4F#	8A#	16d#
.	.	16e#
.	8d#	16f#
.	.	16g#
4D#	8F#	16a#
.	.	16b#
*	*	*strophe
*	*	*^
*	*	*S/sic	*S/ossia
.	[8f#	32cc#xx	16cc#xx
.	.	32b#xx	.
*	*	*S/fin	*S/fin
*	*	*v	*v
*	*	*S-
.	.	16a#
=28	=28	=28
[1G#	16f#]	8b#
.	16g#	.
*	*	*strophe
*	*	*^
*	*	*S/sic	*S/ossia
.	16f#	16dd#xx	8dd#xx
.	16en	16cc#xx	.
*	*	*S/fin	*S/fin
*	*	*v	*v
*	*	*S-
.	16d#	8b#
.	16c#	.
.	32B#	8dd#
.	32c#	.
.	16d#	.
.	16e	8g#
.	16f#	.
.	16e	8cc#
.	16d#	.
.	16c#	8een
.	16B#	.
.	32A#	8cc#
.	32B#	.
.	16c#	.
*^	*	*
!! Four-voice material until the end:
=29	=29	=29	=29
1G#_	2r	8B#	16ff#
.	.	.	16aan
.	.	8d#	16gg#
.	.	.	16ff#
.	.	8c#	16een
.	.	.	16dd#
.	.	8en	32cc#
.	.	.	32dd#
.	.	.	16ee
.	8A#	4r	16f##
.	.	.	16g#
.	4.c#	.	16a#
.	.	.	16b#
.	.	[8e	16cc#
.	.	.	16dd#
.	.	8e 8f##]	32ee
.	.	.	32dd#
.	.	.	16cc#
=30	=30	=30	=30
16G#]	8d#	8g#	8b#
16A#	.	.	.
16G#	8r	8r	8dd#
16F#	.	.	.
16E#	4r	8r	[4gg#
16D#	.	.	.
32C##	.	8ee#	.
32D#	.	.	.
16E#	.	.	.
16AA#	2r	8cc##	4gg#]
16A#	.	.	.
16B#	.	8ee#	.
16c##	.	.	.
16d#	.	8a#	[4ff#
16e#	.	.	.
32f#	.	8dd#	.
32e#	.	.	.
16d#	.	.	.
=31	=31	=31	=31
16g#	1r	8b#	4ff#]
16f#	.	.	.
16e#	.	8dd#	.
16d#	.	.	.
16c#	.	8g#	[4ee#
16Bn	.	.	.
32A#	.	8cc#	.
32B	.	.	.
16c#	.	.	.
8F#	.	16a#	8ee#_
.	.	16cc#	.
8DD#	.	8f#	32ee#]
.	.	.	32dd#
.	.	.	32cc#
.	.	.	32bn
8FF#	.	8r	32a#
.	.	.	32g#
.	.	.	32f#
.	.	.	32e#
8DD#	.	32r	[8f#
.	.	32e#	.
.	.	32d#	.
.	.	32c#	.
=32	=32	=32	=32
*	*	*^	*
[4GG#	8r	16B#	16r	4f#_
.	.	16d#	[16d#	.
.	32r	[8G#	8d#_	.
.	32F#	.	.	.
.	32E#	.	.	.
.	32D#	.	.	.
8GG#_	32E#	4G#]	8d#]	8f#]
.	32D#	.	.	.
.	32C#	.	.	.
.	32BB#	.	.	.
32GG#]	8C#	.	[8c#	[8e#
32AA#	.	.	.	.
32GG#	.	.	.	.
32FF##	.	.	.	.
*	*	*v	*v	*
[4GG#	8r	8c#_	32e#]
.	.	.	32e#
.	.	.	32d#
.	.	.	32c#
.	8F##	32c#]	[8d#
.	.	32c#	.
.	.	32B#	.
.	.	32A#	.
32GG#]	4G#	[4B#	4d#_
32AA#	.	.	.
32BB#	.	.	.
32C#	.	.	.
32D#	.	.	.
32E#	.	.	.
32F#	.	.	.
32D#	.	.	.
=33	=33	=33	=33
4r	8E#	16B#]	8d#]
.	.	8G#	.
.	8En	.	[8c#
.	.	16F##	.
4GG#	4D#	8.G#	16c#]
.	.	.	16c#
.	.	.	8B#
.	.	[16F#	.
[2CC#	[2C#	16F#]	[4c#
.	.	16F#	.
.	.	16E#	.
.	.	16D#	.
.	.	[4E#	16c#]
.	.	.	16G#
.	.	.	16Bn
.	.	.	16G#
=34	=34	=34	=34
1CC#_	2C#_	16E#]	[4A#
.	.	16G#	.
.	.	16F#	.
.	.	16E#	.
.	.	[4F#	16A#]
.	.	.	16A#
.	.	.	16c#
.	.	.	16A#
.	16C#]	4F#]	[4d#
.	16C#	.	.
.	16BB#	.	.
.	16AA#	.	.
.	4BB#	8r	16d#]
.	.	.	16e#
.	.	16r	[8f#
.	.	16G#	.
=35	=35	=35	=35
1CC#;]	4C#	4A#	16f#]
.	.	.	16e#
.	.	.	16d#
.	.	.	[16f#
.	4D#	4B#	16f#]
.	.	.	16a#
.	.	.	16g#
.	.	.	16f#
.	2C#;	2G#; 2c#;	2e#;
==	==	==	==
*-	*-	*-	*-
!!!CDT: 1685/3/-1750/7/28
!!!OCY: Deutschland
!!!PPP: Leipzig
!!!ODT: 1738//-1742//
!!!PDT: 1739//-1742//
!!!AFR: fuga; fugue
!!!AST: polyphony
!!!AMT: simple quadruple
!!!SCA: Bach-Werke-Verzeichnis
!!!YOR: Bach Gesellschaft
!!!SMS: British Library, various
!!!AIN: cemba; clavi
!!!EEV: 1.0
!!!RDT: 1986 November 26
!!!YER: 1994 August 10
!!!EFL: 27/48
!!!VTS: 1669593501
